vendor/shopware/storefront/Resources/app/storefront/dist/assets/icon/default/editor-list.svg

<svg xmlns="http://www.w3.org/2000/svg" width="12" height="12" viewBox="0 0 12 12">
  <path fill="#758CA3" fill-rule="evenodd" d="M4,1 L11,1 C11.5522847,1 12,1.44771525 12,2 C12,2.55228475 11.5522847,3 11,3 L4,3 C3.44771525,3 3,2.55228475 3,2 C3,1.44771525 3.44771525,1 4,1 Z M1,1 C1.55228475,1 2,1.44771525 2,2 C2,2.55228475 1.55228475,3 1,3 C0.44771525,3 -4.33869274e-17,2.55228475 -1.11022302e-16,2 C-6.76353751e-17,1.44771525 0.44771525,1 1,1 Z M4,5 L11,5 C11.5522847,5 12,5.44771525 12,6 C12,6.55228475 11.5522847,7 11,7 L4,7 C3.44771525,7 3,6.55228475 3,6 C3,5.44771525 3.44771525,5 4,5 Z M1,5 C1.55228475,5 2,5.44771525 2,6 C2,6.55228475 1.55228475,7 1,7 C0.44771525,7 -4.33869274e-17,6.55228475 -1.11022302e-16,6 C-6.76353751e-17,5.44771525 0.44771525,5 1,5 Z M4,9 L11,9 C11.5522847,9 12,9.44771525 12,10 C12,10.5522847 11.5522847,11 11,11 L4,11 C3.44771525,11 3,10.5522847 3,10 C3,9.44771525 3.44771525,9 4,9 Z M1,9 C1.55228475,9 2,9.44771525 2,10 C2,10.5522847 1.55228475,11 1,11 C0.44771525,11 -4.33869274e-17,10.5522847 -1.11022302e-16,10 C-6.76353751e-17,9.44771525 0.44771525,9 1,9 Z"/>
</svg>

<svg xmlns="http://www.w3.org/2000/svg" width="12" height="12" viewBox="0 0 12 12"><path fill="#758CA3" fill-rule="evenodd" d="M4 1h7c.5523 0 1 .4477 1 1s-.4477 1-1 1H4c-.5523 0-1-.4477-1-1s.4477-1 1-1zM1 1c.5523 0 1 .4477 1 1s-.4477 1-1 1-1-.4477-1-1 .4477-1 1-1zm3 4h7c.5523 0 1 .4477 1 1s-.4477 1-1 1H4c-.5523 0-1-.4477-1-1s.4477-1 1-1zM1 5c.5523 0 1 .4477 1 1s-.4477 1-1 1-1-.4477-1-1 .4477-1 1-1zm3 4h7c.5523 0 1 .4477 1 1s-.4477 1-1 1H4c-.5523 0-1-.4477-1-1s.4477-1 1-1zM1 9c.5523 0 1 .4477 1 1s-.4477 1-1 1-1-.4477-1-1 .4477-1 1-1z"/></svg>
